assets/Keycap 0/Flat/keycap_0_flat.svg

<svg width="32" height="32" viewBox="0 0 32 32" fill="none" xmlns="http://www.w3.org/2000/svg">
<path d="M2 6C2 3.79086 3.79086 2 6 2H26C28.2091 2 30 3.79086 30 6V26C30 28.2091 28.2091 30 26 30H6C3.79086 30 2 28.2091 2 26V6Z" fill="#00A6ED"/>
<path d="M10 13.75C10 10.4363 12.6863 7.75 16 7.75C19.3137 7.75 22 10.4363 22 13.75V18.25C22 21.5637 19.3137 24.25 16 24.25C12.6863 24.25 10 21.5637 10 18.25V13.75ZM16 11.25C14.6193 11.25 13.5 12.3693 13.5 13.75V18.25C13.5 19.6307 14.6193 20.75 16 20.75C17.3807 20.75 18.5 19.6307 18.5 18.25V13.75C18.5 12.3693 17.3807 11.25 16 11.25Z" fill="white"/>
</svg>

<svg xmlns="http://www.w3.org/2000/svg" width="32" height="32" fill="none"><path fill="#00A6ED" d="M2 6a4 4 0 0 1 4-4h20a4 4 0 0 1 4 4v20a4 4 0 0 1-4 4H6a4 4 0 0 1-4-4V6Z"/><path fill="#fff" d="M10 13.75a6 6 0 0 1 12 0v4.5a6 6 0 0 1-12 0v-4.5Zm6-2.5a2.5 2.5 0 0 0-2.5 2.5v4.5a2.5 2.5 0 0 0 5 0v-4.5a2.5 2.5 0 0 0-2.5-2.5Z"/></svg>
